public/Home.svg

<svg xmlns="http://www.w3.org/2000/svg" width="600" height="330" fill="none"><g clip-path="url(#a)"><path fill="#C4DEEC" d="M0 0h600v330H0z"/><path fill="#fff" fill-rule="evenodd" d="M20.0419 409.474c-38.616-49.329-34.228-257.777 12.7776-286.814C65.2245 102.641 201.03 22.865 269.913 22.7443c35.531-.0623 93.956 21.57 147.219 50.0648.381-14.5427 1.696-26.0184 4.442-28.197 6.118-8.9627 45.867-6.9359 48.884 3.559 2.266 7.8815 3.756 35.9263 4.514 59.9079 24.503 17.169 44.275 34.671 54.81 50.124 19.816 29.067 17.489 189.815 14.137 241.866-12.777 30.562-427.336 37.617-523.8771 9.405Z" clip-rule="evenodd" opacity=".3"/><path fill="#87BBD9" fill-rule="evenodd" d="M310.735 286.709c-16.675-21.613-21.943-46.009-26.008-78.141-2.108-16.661 29.651-18.7 32.759 1.831 3.031 20.019-.818 42.639 15.146 60.673 16.99 19.196 36.646 31.958 49.297 35.429 7.917 2.173 19.509.322 20.348 3.427.426 1.569-2.373.432-2.222 1.921.086.856 2.394.759 4.018 1.256 2.257.693 4.999 3.353 5.008 4.418.037 4.348-4.997 9.648-10.886 7.783-2.61-.827-24.097-7.846-27.002-8.891-9.21-3.313-47.166-12.476-60.458-29.706" clip-rule="evenodd"/><path fill="#fff" fill-rule="evenodd" d="M283.146 186.078c14.681-5.139 39.765 12.393 37.13 34.212-.94 7.778-14.659 11.499-25.43 12.466-9.535.856-6.675-1.672-12.471-21.958-2.742-9.601-17.551-18.306.771-24.72" clip-rule="evenodd"/><path fill="#87BBD9" fill-rule="evenodd" d="M294.674 160.55c7.091-2.659 12.82-8.252 16.866-25.133 8.101-33.799 3.094-43.3649-14.953-49.1472-27.072-8.672-38.49 5.5306-44.226 21.8622-5.737 16.331-.087 36.375-3.565 48.76-2.839 10.115-6.833 18.095-20.873 27.496-16.184 10.84 29.402 54.212 56.367 24.826 11.384-12.406 6.288-14.04 2.519-20.809-3.768-6.769-6.182-22.586 7.865-27.855Z" clip-rule="evenodd"/><path fill="#0C5077" fill-rule="evenodd" d="M312.691 106.517c-10.485 2.481-47.641-17.3976-49.674 2.461-2.378 23.221-9.465 6.144-12.063 30.49-1.542 14.446-28.308-53.231 5.984-63.9098 36.088-11.2394 44.732 3.0678 54.663 1.1801 14.012-2.6648 12.326 27.1217 1.09 29.7787Z" clip-rule="evenodd"/><path fill="#083752" fill-rule="evenodd" d="M282.485 125.453c-.06-1.175.465-1.821 1.837-2.314 1.202-.432 2.277.314 2.514.934.539 1.4-.723 3.839-2.557 3.525-1.243-.213-1.745-1.165-1.794-2.145M301.812 127.027c.112-1.127.644-1.658 1.868-1.909 1.074-.221 1.878.66 1.994 1.286.261 1.418-1.14 3.538-2.643 2.948-1.019-.399-1.312-1.385-1.219-2.325" clip-rule="evenodd"/><path fill="#fff" fill-rule="evenodd" d="M290.739 147.473c4.411.823 7.729-3.279 6.597-4.197-3.211-2.609-10.382-1.29-10.437-1.228-.691.793 1.577 5.003 3.84 5.425" clip-rule="evenodd"/><path fill="#0C5077" fill-rule="evenodd" d="M280.334 119.548c4.484-1.52 8.787-.289 11.194 1.659.669.543.915 1.442.491 2.079-.427.64-1.277.282-1.984-.213-1.892-1.329-4.314-2.588-9.693-.768-.744.252-1.827.364-2.109-.433-.25-.703.55-1.798 2.101-2.324M301.668 119.517c2.708-1.169 5.836-.6 8.539.441 1.277.492 1.459 1.592 1.116 2.141-.387.621-1.053.414-1.658.161-2.981-1.243-5.1-1.954-7.127-.972-3.027 1.467-3.955 2.868-3.014 8.203 1.034 5.855-3.49 6.409-4.019 5.806-.692-.789 1.244-1.588 1.831-2.116 1.605-1.447-.753-5.74-.065-8.837.724-3.261 2.215-3.885 4.397-4.827" clip-rule="evenodd"/><path fill="#87BBD9" fill-rule="evenodd" d="M257.808 136.763c-7.526-1.091-7.799-5.684-7.412-8.037.951-5.768 5.681-7.182 11.223-4.188 3.469 1.873-.065 12.768-3.811 12.225" clip-rule="evenodd"/><path fill="#fff" fill-rule="evenodd" d="M199.84 260.224c0 25.446 6.528 62.884 2.272 83.587-3.171 15.416 4.43 14.953 46.142 17.899 41.033 2.898 70.366 6.518 68.479-.778-8.095-31.289-10.372-77.91-7.934-124.98 1.944-37.528-11.127-53.207-21.753-49.978-3.687 1.121 10.706 11.308-13.636 11.805-21.666.441-39.607-17.531-42.438-16.95-35.723 7.334-31.132 52.763-31.132 79.395Z" clip-rule="evenodd"/><path fill="#87BBD9" fill-rule="evenodd" d="M247.041 312.234c-21.19-21.814-31.907-47.805-43.223-82.323-5.869-17.9 24.601-23.317 32.329-1.311 7.535 21.455 8.965 46.432 28.643 64.429 20.945 19.154 43.016 31.047 56.132 33.547 8.21 1.562 19.076-1.616 20.606 1.675.772 1.662-2.214.709-1.725 2.312.28.921 2.506.582 4.201.959 2.357.526 5.637 3.142 5.89 4.298 1.031 4.724-2.66 10.993-8.822 9.558-2.732-.636-24.502-2.708-27.572-3.551-9.73-2.675-49.567-12.203-66.459-29.593Z" clip-rule="evenodd"/><path fill="#fff" fill-rule="evenodd" d="M218.149 186.139c-16.256 9.753-22.691 39.423-12.193 58.999 3.741 6.978 22.115 4.1 32.602 1.212 9.284-2.556 5.664-3.924 3.661-25.033-.948-9.987-12.691-42.006-24.07-35.178Z" clip-rule="evenodd"/><path fill="#fff" fill-opacity=".2" fill-rule="evenodd" d="M231.376 257.323c-11.253-22.414 2.738-78.852 35.843-86.504 8.832-7.379-9.537-14.158-7.255-22.41 1.189-4.323 8.259-25.983 8.105-31.739 12.613-19.3944 38.581-5.738 43.798-4.555 0 0 92.804 97.395 158.856 142.906 12.604 6.609-41.585 62.359-73.419 77.031-37.935 17.485-98.538-6.816-123.101-22.622-26.571-17.099-32.397-31.326-42.827-52.107Z" clip-rule="evenodd"/><path fill="#FD6340" fill-rule="evenodd" d="M476.56 253.566c2.795-.15 7.34 1.352 6.438 10.797 0 0-11.481 54.108-13.884 68.404 0 19.046-80.879 15.258-143.711 12.115 1.32-23.468 13.938-78.741 13.938-78.741.462-2.317 1.635-9.353 10.328-9.53l126.891-3.045Z" clip-rule="evenodd"/><path fill="#FDEDEB" fill-rule="evenodd" d="M396.254 304.177c.443 6.552 5.234 11.59 14.841 10.993 9.604-.596 13.674-6.182 13.231-12.736-.445-6.552-5.791-7.858-14.841-10.992-8.668-3.003-13.676 6.182-13.231 12.735" clip-rule="evenodd"/><path fill="#87BBD9" d="M176.686 285.768c-.304-6.294 4.558-3.792 8.319 1.819 4.673 7.127 5.319 7.582 15.765 6.331 7.142-.758 5.888-9.478 9.003-9.743 3.115-.266 20.59 33.437 5.623 48.866-14.968 15.43-12.537 10.956-12.423 30.859.114 19.902-7.863 27.637 10.941 22.367 17.057-4.777 6.762 26.271-36.468 18.386-19.564-3.526-47.561-23.011-64.77-30.025-20.8931-8.491-41.2167-7.809-47.8266-17.589-12.0422-17.856-4.3307-32.148 13.9415-45.758 18.2722-13.61 72.7471 15.164 85.0551 11.639 12.308-3.526 13.22-29.191 12.84-37.152Z"/><path fill="#87BBD9" d="M82.3621 314.276s-10.3327-24.225-.6838-48.563c10.0668-25.476 4.4825-55.917-3.381-63.196-7.8635-7.279.0001 17.021-.3798 33.74-.3798 16.718-10.7884 37.114-9.8387 53.908.4771 9.971 2.849 19.762 6.9896 28.85l7.2937-4.739Z"/></g><defs><clipPath id="a"><path fill="#fff" d="M0 0h600v330H0z"/></clipPath></defs></svg>

<svg width="600" height="330" viewBox="0 0 600 330" fill="none" xmlns="http://www.w3.org/2000/svg">
<g clip-path="url(#clip0_914_5470)">
<rect width="600" height="330" fill="#C4DEEC"/>
<g opacity="0.3">
<path fill-rule="evenodd" clip-rule="evenodd" d="M20.0419 409.474C-18.5741 360.145 -14.1861 151.697 32.8195 122.66C65.2245 102.641 201.03 22.865 269.913 22.7443C305.444 22.682 363.869 44.3143 417.132 72.8091C417.513 58.2664 418.828 46.7907 421.574 44.6121C427.692 35.6494 467.441 37.6762 470.458 48.1711C472.724 56.0526 474.214 84.0974 474.972 108.079C499.475 125.248 519.247 142.75 529.782 158.203C549.598 187.27 547.271 348.018 543.919 400.069C531.142 430.631 116.583 437.686 20.0419 409.474Z" fill="white"/>
</g>
<path fill-rule="evenodd" clip-rule="evenodd" d="M310.735 286.709C294.06 265.096 288.792 240.7 284.727 208.568C282.619 191.907 314.378 189.868 317.486 210.399C320.517 230.418 316.668 253.038 332.632 271.072C349.622 290.268 369.278 303.03 381.929 306.501C389.846 308.674 401.438 306.823 402.277 309.928C402.703 311.497 399.904 310.36 400.055 311.849C400.141 312.705 402.449 312.608 404.073 313.105C406.33 313.798 409.072 316.458 409.081 317.523C409.118 321.871 404.084 327.171 398.195 325.306C395.585 324.479 374.098 317.46 371.193 316.415C361.983 313.102 324.027 303.939 310.735 286.709" fill="#87BBD9"/>
<path fill-rule="evenodd" clip-rule="evenodd" d="M283.146 186.078C297.827 180.939 322.911 198.471 320.276 220.29C319.336 228.068 305.617 231.789 294.846 232.756C285.311 233.612 288.171 231.084 282.375 210.798C279.633 201.197 264.824 192.492 283.146 186.078" fill="white"/>
<path fill-rule="evenodd" clip-rule="evenodd" d="M294.674 160.55C301.765 157.891 307.494 152.298 311.54 135.417C319.641 101.618 314.634 92.0521 296.587 86.2698C269.515 77.5978 258.097 91.8004 252.361 108.132C246.624 124.463 252.274 144.507 248.796 156.892C245.957 167.007 241.963 174.987 227.923 184.388C211.739 195.228 257.325 238.6 284.29 209.214C295.674 196.808 290.578 195.174 286.809 188.405C283.041 181.636 280.627 165.819 294.674 160.55Z" fill="#87BBD9"/>
<path fill-rule="evenodd" clip-rule="evenodd" d="M312.691 106.517C302.206 108.998 265.05 89.1194 263.017 108.978C260.639 132.199 253.552 115.122 250.954 139.468C249.412 153.914 222.646 86.237 256.938 75.5582C293.026 64.3188 301.67 78.626 311.601 76.7383C325.613 74.0735 323.927 103.86 312.691 106.517Z" fill="#0C5077"/>
<path fill-rule="evenodd" clip-rule="evenodd" d="M282.485 125.453C282.425 124.278 282.95 123.632 284.322 123.139C285.524 122.707 286.599 123.453 286.836 124.073C287.375 125.473 286.113 127.912 284.279 127.598C283.036 127.385 282.534 126.433 282.485 125.453" fill="#083752"/>
<path fill-rule="evenodd" clip-rule="evenodd" d="M301.812 127.027C301.924 125.9 302.456 125.369 303.68 125.118C304.754 124.897 305.558 125.778 305.674 126.404C305.935 127.822 304.534 129.942 303.031 129.352C302.012 128.953 301.719 127.967 301.812 127.027" fill="#083752"/>
<path fill-rule="evenodd" clip-rule="evenodd" d="M290.739 147.473C295.15 148.296 298.468 144.194 297.336 143.276C294.125 140.667 286.954 141.986 286.899 142.048C286.208 142.841 288.476 147.051 290.739 147.473" fill="white"/>
<path fill-rule="evenodd" clip-rule="evenodd" d="M280.334 119.548C284.818 118.028 289.121 119.259 291.528 121.207C292.197 121.75 292.443 122.649 292.019 123.286C291.592 123.926 290.742 123.568 290.035 123.073C288.143 121.744 285.721 120.485 280.342 122.305C279.598 122.557 278.515 122.669 278.233 121.872C277.983 121.169 278.783 120.074 280.334 119.548" fill="#0C5077"/>
<path fill-rule="evenodd" clip-rule="evenodd" d="M301.668 119.517C304.376 118.348 307.504 118.917 310.207 119.958C311.484 120.45 311.666 121.55 311.323 122.099C310.936 122.72 310.27 122.513 309.665 122.26C306.684 121.017 304.565 120.306 302.538 121.288C299.511 122.755 298.583 124.156 299.524 129.491C300.558 135.346 296.034 135.9 295.505 135.297C294.813 134.508 296.749 133.709 297.336 133.181C298.941 131.734 296.583 127.441 297.271 124.344C297.995 121.083 299.486 120.459 301.668 119.517" fill="#0C5077"/>
<path fill-rule="evenodd" clip-rule="evenodd" d="M257.808 136.763C250.282 135.672 250.009 131.079 250.396 128.726C251.347 122.958 256.077 121.544 261.619 124.538C265.088 126.411 261.554 137.306 257.808 136.763" fill="#87BBD9"/>
<path fill-rule="evenodd" clip-rule="evenodd" d="M199.84 260.224C199.84 285.67 206.368 323.108 202.112 343.811C198.941 359.227 206.542 358.764 248.254 361.71C289.287 364.608 318.62 368.228 316.733 360.932C308.638 329.643 306.361 283.022 308.799 235.952C310.743 198.424 297.672 182.745 287.046 185.974C283.359 187.095 297.752 197.282 273.41 197.779C251.744 198.22 233.803 180.248 230.972 180.829C195.249 188.163 199.84 233.592 199.84 260.224Z" fill="white"/>
<path fill-rule="evenodd" clip-rule="evenodd" d="M247.041 312.234C225.851 290.42 215.134 264.429 203.818 229.911C197.949 212.011 228.419 206.594 236.147 228.6C243.682 250.055 245.112 275.032 264.79 293.029C285.735 312.183 307.806 324.076 320.922 326.576C329.132 328.138 339.998 324.96 341.528 328.251C342.3 329.913 339.314 328.96 339.803 330.563C340.083 331.484 342.309 331.145 344.004 331.522C346.361 332.048 349.641 334.664 349.894 335.82C350.925 340.544 347.234 346.813 341.072 345.378C338.34 344.742 316.57 342.67 313.5 341.827C303.77 339.152 263.933 329.624 247.041 312.234Z" fill="#87BBD9"/>
<path fill-rule="evenodd" clip-rule="evenodd" d="M218.149 186.139C201.893 195.892 195.458 225.562 205.956 245.138C209.697 252.116 228.071 249.238 238.558 246.35C247.842 243.794 244.222 242.426 242.219 221.317C241.271 211.33 229.528 179.311 218.149 186.139Z" fill="white"/>
<path fill-rule="evenodd" clip-rule="evenodd" d="M231.376 257.323C220.123 234.909 234.114 178.471 267.219 170.819C276.051 163.44 257.682 156.661 259.964 148.409C261.153 144.086 268.223 122.426 268.069 116.67C280.682 97.2756 306.65 110.932 311.867 112.115C311.867 112.115 404.671 209.51 470.723 255.021C483.327 261.63 429.138 317.38 397.304 332.052C359.369 349.537 298.766 325.236 274.203 309.43C247.632 292.331 241.806 278.104 231.376 257.323Z" fill="white" fill-opacity="0.2"/>
<path fill-rule="evenodd" clip-rule="evenodd" d="M476.56 253.566C479.355 253.416 483.9 254.918 482.998 264.363C482.998 264.363 471.517 318.471 469.114 332.767C469.114 351.813 388.235 348.025 325.403 344.882C326.723 321.414 339.341 266.141 339.341 266.141C339.803 263.824 340.976 256.788 349.669 256.611L476.56 253.566Z" fill="#FD6340"/>
<path fill-rule="evenodd" clip-rule="evenodd" d="M396.254 304.177C396.697 310.729 401.488 315.767 411.095 315.17C420.699 314.574 424.769 308.988 424.326 302.434C423.881 295.882 418.535 294.576 409.485 291.442C400.817 288.439 395.809 297.624 396.254 304.177" fill="#FDEDEB"/>
<path d="M176.686 285.768C176.382 279.474 181.244 281.976 185.005 287.587C189.678 294.714 190.324 295.169 200.77 293.918C207.912 293.16 206.658 284.44 209.773 284.175C212.888 283.909 230.363 317.612 215.396 333.041C200.428 348.471 202.859 343.997 202.973 363.9C203.087 383.802 195.11 391.537 213.914 386.267C230.971 381.49 220.676 412.538 177.446 404.653C157.882 401.127 129.885 381.642 112.676 374.628C91.7829 366.137 71.4593 366.819 64.8494 357.039C52.8072 339.183 60.5187 324.891 78.7909 311.281C97.0631 297.671 151.538 326.445 163.846 322.92C176.154 319.394 177.066 293.729 176.686 285.768Z" fill="#87BBD9"/>
<path d="M82.3621 314.276C82.3621 314.276 72.0294 290.051 81.6783 265.713C91.7451 240.237 86.1608 209.796 78.2973 202.517C70.4338 195.238 78.2974 219.538 77.9175 236.257C77.5377 252.975 67.1291 273.371 68.0788 290.165C68.5559 300.136 70.9278 309.927 75.0684 319.015L82.3621 314.276Z" fill="#87BBD9"/>
</g>
<defs>
<clipPath id="clip0_914_5470">
<rect width="600" height="330" fill="white"/>
</clipPath>
</defs>
</svg>
